symbols/web/thumbs_up_down/materialsymbolssharp/thumbs_up_down_wght500grad200_48px.svg

<svg xmlns="http://www.w3.org/2000/svg" height="48" width="48"><path d="M-.35 28.6V10.5L10.5-.4l2.35 2.6-1.6 7.65h13.1v5.7L18.8 28.6Zm3.75-3.75h12.85l4.3-9.9V13.6H7.15L8.5 6.9l-5.1 5.2ZM37.5 48.3l-2.3-2.55 1.6-7.7H23.65v-5.7l5.6-13.05h19.1v18.15Zm2-7.3 5.1-5.2V23.05H31.75l-4.3 9.9v1.4h13.4ZM3.4 24.85v-12.7 12.7ZM44.6 35.8V23.05 35.8Z"/></svg>

<svg xmlns="http://www.w3.org/2000/svg" height="48" width="48"><path d="M-0.35 28.6V10.5L10.5 -0.4L12.85 2.2L11.25 9.85H24.35V15.55L18.8 28.6ZM3.4 24.85H16.25L20.55 14.95V13.6H7.15L8.5 6.9L3.4 12.1ZM37.5 48.3 35.2 45.75 36.8 38.05H23.65V32.35L29.25 19.3H48.35V37.45ZM39.5 41 44.6 35.8V23.05H31.75L27.45 32.95V34.35H40.85ZM3.4 24.85V12.15V13.6V14.95V24.85ZM44.6 35.8V34.35V32.95V23.05V35.8Z"/></svg>
